X: 20
T: Missa Dio te salvi Gotterello / Agnus Dei
N: Derived from Mar1004e-Missa_Dio_te_salvi_Gotterello-Agnus.krn
C: Johannes Martini
%%abc-version 2.0
%%abcx-abcm2ps-target-version 5.9.1 (29 Sep 2008)
%%abc-creator hum2abc beta
%%abcx-conversion-date 2019/02/17 07:19:41
%%abc-edited-by Jesse Rodin
%%abc-edited-by Chris Gage 01-27-2014
%%abcx-initial-encoding-date 2015/03/07/
%%humdrum-veritas 1910154915
%%humdrum-veritas-data 3215600208
%%linebreak <none>
%%barnumbers 0
L: 1/4
M: 4/2
Q: 1/2=120
%%staves [1 2 3 4]
V: 1 clef=treble
V: 2 clef=treble-8
V: 3 clef=treble-8
V: 4 clef=bass
K: C
[V:1] A4G2E2 | 
[V:2] A3Bc2c2 | 
[V:3] z8 | 
[V:4] z8 | 
[V:1] F4F4 | 
[V:2] d2cBc4 | 
[V:3] z4A4 | 
[V:4] z8 | 
[V:1] z2G2F2A2- | 
[V:2] B4A2d2- | 
[V:3] G2E2F4 | 
[V:4] z8 | 
[V:1] A2G2F2ED | 
[V:2] d2c2d2cd | 
[V:3] E4D2A2- | 
[V:4] z8 | 
[V:1] C2E3DD2- | 
[V:2] e2z2A2A2 | 
[V:3] A2G2F2D2 | 
[V:4] z8 | 
[V:1] D2^C2D4 | 
[V:2] G2E2F4 | 
[V:3] E4z4 | 
[V:4] z4D,4 | 
[V:1] z8 | 
[V:2] E2A4^G2 | 
[V:3] z8 | 
[V:4] C,2A,,2B,,4 | 
[V:1] z8 | 
[V:2] A4z2e2 | 
[V:3] z8 | 
[V:4] A,,2D,4C,2 | 
[V:1] z8 | 
[V:2] f2edc2B2 | 
[V:3] z8 | 
[V:4] D,4F,2G,2 | 
[V:1] z8 | 
[V:2] A2e3dd2- | 
[V:3] z8 | 
[V:4] A,4G,2F,2 | 
[V:1] z8 | 
[V:2] d2^c2d4 | 
[V:3] z4z2A2 | 
[V:4] E,4D,4 | 
[V:1] z8 | 
[V:2] z8 | 
[V:3] B2A2d2c2 | 
[V:4] z2A,,2B,,2A,,2 | 
[V:1] z8 | 
[V:2] z8 | 
[V:3] A2c4B2- | 
[V:4] D,2C,2E,4 | 
[V:1] z8 | 
[V:2] z8 | 
[V:3] B2A4^G2 | 
[V:4] D,2C,2B,,4 | 
[V:1] E2F2E2A2- | 
[V:2] c6d2 | 
[V:3] A4E2F2 | 
[V:4] A,,8- | 
[V:1] ABcdB2A2 | 
[V:2] e4f2e2 | 
[V:3] E2A3Bcd | 
[V:4] A,,4z2A,,2 | 
[V:1] d3cBAA2- | 
[V:2] d2e2f2ef | 
[V:3] B2A2d2c2 | 
[V:4] B,,2C,2D,2A,,2 | 
[V:1] A2^G2A4 | 
[V:2] gfedc4 | 
[V:3] B4A4 | 
[V:4] E,4A,,4 | 
[V:1] [M:3/1]z12 | 
[V:2] [M:3/1]e3dc2B4c2- | 
[V:3] [M:3/1]A4A2G4E2 | 
[V:4] [M:3/1]z12 | 
[V:1] A4A2G4E2 | 
[V:2] c2d4B6 | 
[V:3] F2D3CE3FG2 | 
[V:4] z12 | 
[V:1] F2D3CE4C2- | 
[V:2] z12 | 
[V:3] A2F4E4z2 | 
[V:4] A,4A,2G,4E,2 | 
[V:1] C2D4B,4z2 | 
[V:2] a4a2g4e2 | 
[V:3] z12 | 
[V:4] F,2D,4E,3F,G,2 | 
[V:1] A4A2G3FED | 
[V:2] f2d4e3dcB | 
[V:3] z6G4G2 | 
[V:4] A,2F,4E,6 | 
[V:1] F2E3DD4^C2 | 
[V:2] c4c2B2A4 | 
[V:3] A4G2F2E4 | 
[V:4] A,,4C,2D,2A,,4 | 
[V:1] D8E4 | 
[V:2] A4B4c4 | 
[V:3] D4D4C4 | 
[V:4] D,4F,4G,4 | 
[V:1] F6E2D4 | 
[V:2] A8B4 | 
[V:3] D4F4G4 | 
[V:4] F,4D,4G,,4 | 
[V:1] C12 ||  
[V:2] A12 ||  
[V:3] E12 ||  
[V:4] A,,12 ||  
[V:1]  [K:C] [K:clef=treble][M:4/2]A6G2 | 
[V:2]  [K:C] [K:clef=treble-8][M:4/2]z8 | 
[V:3]  [K:C] [K:clef=treble-8][M:4/2]z8 | 
[V:4]  [K:C] [K:clef=bass][M:4/2]z8 | 
[V:1] F4E4 | 
[V:2] z8 | 
[V:3] A6G2 | 
[V:4] z8 | 
[V:1] z2D2E2G2- | 
[V:2] z8 | 
[V:3] F4E4 | 
[V:4] z8 | 
[V:1] G2F2G2E2 | 
[V:2] z8 | 
[V:3] z2D2E2G2- | 
[V:4] z8 | 
[V:1] D4z2G2 | 
[V:2] z8 | 
[V:3] G2F2G2E2 | 
[V:4] z8 | 
[V:1] F2_B4A2- | 
[V:2] z8 | 
[V:3] D4G2F2 | 
[V:4] z8 | 
[V:1] A2G2F2E2- | 
[V:2] z8 | 
[V:3] _B4A4 | 
[V:4] z8 | 
[V:1] EDD4^C2 | 
[V:2] z8 | 
[V:3] G2F2E4 | 
[V:4] z8 | 
[V:1] D4z2d2- | 
[V:2] z8 | 
[V:3] D8 | 
[V:4] z8 | 
[V:1] d2c2A2B2- | 
[V:2] z8 | 
[V:3] z4d4- | 
[V:4] z8 | 
[V:1] BAGFE2F2 | 
[V:2] z8 | 
[V:3] d4c2A2 | 
[V:4] z8 | 
[V:1] G3AB2c2 | 
[V:2] z8 | 
[V:3] BAGFE3F | 
[V:4] z8 | 
[V:1] B2A2B4 | 
[V:2] z8 | 
[V:3] G2A2G2d2- | 
[V:4] z8 | 
[V:1] A3GE2G2- | 
[V:2] z8 | 
[V:3] dcA2B4 | 
[V:4] z8 | 
[V:1] G2^F2G4 | 
[V:2] z8 | 
[V:3] A4G4 | 
[V:4] z8 | 
[V:1] z8 | 
[V:2] z4z2d2- | 
[V:3] z8 | 
[V:4] D,4C,2D,2 | 
[V:1] z8 | 
[V:2] d2c2d2B2 | 
[V:3] z8 | 
[V:4] B,,2A,,2G,,2D,2- | 
[V:1] z8 | 
[V:2] A2G2d4 | 
[V:3] z8 | 
[V:4] D,2E,2F,2G,2 | 
[V:1] z8 | 
[V:2] e2f2g2e2 | 
[V:3] z8 | 
[V:4] E,2D,2z2C,2 | 
[V:1] z8 | 
[V:2] d2z2c2d2 | 
[V:3] z8 | 
[V:4] D,2F,2E,2D,2 | 
[V:1] z8 | 
[V:2] f2e4d2- | 
[V:3] z8 | 
[V:4] A,4G,2F,2 | 
[V:1] z4z2A2 | 
[V:2] d2^c2d4 | 
[V:3] z8 | 
[V:4] E,4D,4 | 
[V:1] c2B2A4 | 
[V:2] z8 | 
[V:3] z4A2c2 | 
[V:4] z8 | 
[V:1] G2A4GF | 
[V:2] z8 | 
[V:3] B2A2d4 | 
[V:4] z8 | 
[V:1] E2F4E2 | 
[V:2] z8 | 
[V:3] c3BG4 | 
[V:4] z2A,,2B,,2C,2 | 
[V:1] D2C2D4 | 
[V:2] z8 | 
[V:3] F2A4G2 | 
[V:4] D,2A,,2B,,4 | 
[V:1] C3DE2F2- | 
[V:2] z8 | 
[V:3] A2c3BA2 | 
[V:4] A,,8 | 
[V:1] F2E2F4 | 
[V:2] z4z2A2 | 
[V:3] G4F4 | 
[V:4] C,4D,4 | 
[V:1] z8 | 
[V:2] B2c2d2cB | 
[V:3] z8 | 
[V:4] z2A,,2B,,2C,2 | 
[V:1] z8 | 
[V:2] A2d2e2f2 | 
[V:3] z8 | 
[V:4] D,3C,A,,2D,2 | 
[V:1] z2A2B2c2 | 
[V:2] g2fed2A2 | 
[V:3] z8 | 
[V:4] E,2F,2G,2F,E, | 
[V:1] d2cBA2E2 | 
[V:2] B2c2d2cB | 
[V:3] z8 | 
[V:4] D,4z2C,2 | 
[V:1] F2G2A2GF | 
[V:2] A2z2z4 | 
[V:3] z4D2F2 | 
[V:4] D,2E,2F,2D,2 | 
[V:1] E2F4D2- | 
[V:2] z8 | 
[V:3] G2A2F2G2 | 
[V:4] E,2D,4G,,2 | 
[V:1] D2^C2D4 ||  
[V:2] z4A4 ||  
[V:3] E4D4 ||  
[V:4] A,,4A,4 ||  
[V:1]  [K:C] [K:clef=treble][M:4/2]A8- | 
[V:2]  [K:C] [K:clef=treble-8][M:4/2]d6cB | 
[V:3]  [K:C] [K:clef=treble-8][M:4/2]D8 | 
[V:4]  [K:C] [K:clef=bass][M:4/2]F,8 | 
[V:1] A8 | 
[V:2] A2d3ef2 | 
[V:3] F8 | 
[V:4] D,8 | 
[V:1] G8 | 
[V:2] ed^cB^c4 | 
[V:3] G8 | 
[V:4] E,8 | 
[V:1] F4_B4- | 
[V:2] d6e2 | 
[V:3] A4G4 | 
[V:4] D,4G,4 | 
[V:1] B2A2A4- | 
[V:2] f4e4- | 
[V:3] c8 | 
[V:4] F,4A,4 | 
[V:1] A2G2F2E2 | 
[V:2] e2dcB4 | 
[V:3] B8 | 
[V:4] E,8 | 
[V:1] E4F4- | 
[V:2] c4A2F2- | 
[V:3] A8 | 
[V:4] A,,4D,4- | 
[V:1] F4E4 | 
[V:2] F2EDC4 | 
[V:3] A4A4- | 
[V:4] D,4A,,4 | 
[V:1] D8 | 
[V:2] D4z2D2 | 
[V:3] A2G2G3F | 
[V:4] B,,8 | 
[V:1] C4D4 | 
[V:2] E2A4B2 | 
[V:3] A4F4 | 
[V:4] A,,4D,4 | 
[V:1] E4F4- | 
[V:2] c6A2- | 
[V:3] G4A4 | 
[V:4] C,4A,,4 | 
[V:1] F2E2D4- | 
[V:2] A2G2G2F2 | 
[V:3] D8 | 
[V:4] B,,8 | 
[V:1] D2^CB,C4 | 
[V:2] A4z4 | 
[V:3] E8 | 
[V:4] A,,8 | 
[V:1] D6E2 | 
[V:2] A4B2A2 | 
[V:3] D8 | 
[V:4] D,8 | 
[V:1] F4G2A2- | 
[V:2] d4e2d2 | 
[V:3] z8 | 
[V:4] z8 | 
[V:1] A2B2A2d2- | 
[V:2] f2g2a2f2 | 
[V:3] z8 | 
[V:4] z8 | 
[V:1] d2c2d2B2 | 
[V:2] e4d4 | 
[V:3] z8 | 
[V:4] z8 | 
[V:1] A2c3BG2 | 
[V:2] f4e4 | 
[V:3] z8 | 
[V:4] z8 | 
[V:1] F2A3G_B2- | 
[V:2] d2f2e2g2- | 
[V:3] z8 | 
[V:4] z8 | 
[V:1] BAGFE4 | 
[V:2] gfed^c4 | 
[V:3] z8 | 
[V:4] z8 | 
[V:1] D2F3EG2- | 
[V:2] d2A3GB2- | 
[V:3] z8 | 
[V:4] z8 | 
[V:1] GFED^C4 | 
[V:2] BAGFE4 | 
[V:3] z8 | 
[V:4] z8 | 
[V:1] [M:3/1]D8D4 | 
[V:2] [M:3/1]D8z4 | 
[V:3] [M:3/1]z12 | 
[V:4] [M:3/1]D,4F,4G,4 | 
[V:1] C8C4 | 
[V:2] F8G4 | 
[V:3] z12 | 
[V:4] A,6G,2E,4 | 
[V:1] D6C2B,2A,2 | 
[V:2] A6G2F2E2 | 
[V:3] z12 | 
[V:4] F,6E,2D,2C,2 | 
[V:1] A,8^G,4 | 
[V:2] F4D6C2 | 
[V:3] d8d4 | 
[V:4] D,4B,,8 | 
[V:1] A,8z4 | 
[V:2] E8e4 | 
[V:3] c8c4 | 
[V:4] A,,12 | 
[V:1] A8B4 | 
[V:2] f8d4 | 
[V:3] d6c2B2A2 | 
[V:4] D,8D,4 | 
[V:1] c4d4B4 | 
[V:2] e4f4g4 | 
[V:3] A8G4 | 
[V:4] C,4D,4E,4 | 
[V:1] c8A4 | 
[V:2] e8c4 | 
[V:3] A12 | 
[V:4] A,,12 | 
[V:1] A6G2F4 | 
[V:2] d4A4B4 | 
[V:3] z12 | 
[V:4] D,8D,4 | 
[V:1] G4E8 | 
[V:2] c8A4 | 
[V:3] z12 | 
[V:4] C,8C,4 | 
[V:1] F8D4 | 
[V:2] A6F2G4 | 
[V:3] d8d4 | 
[V:4] D,6C,2B,,4 | 
[V:1] E8E4 | 
[V:2] A6G2E4 | 
[V:3] c8c4 | 
[V:4] A,,12 | 
[V:1] F6E2D4 | 
[V:2] D4F4G4 | 
[V:3] d6c2B4 | 
[V:4] D,8G,,4 | 
[V:1] C8F4 | 
[V:2] E8z4 | 
[V:3] A12 | 
[V:4] A,,8D,4 | 
[V:1] G4A6G2 | 
[V:2] e12 | 
[V:3] c8B4 | 
[V:4] C,6D,2E,4 | 
[V:1] F8E4 | 
[V:2] c8c4 | 
[V:3] A4G8 | 
[V:4] F,4C,8 | 
[V:1] F4z4G4 | 
[V:2] A4d4c3B | 
[V:3] F8z4 | 
[V:4] D,8E,4 | 
[V:1] A6G2F4 | 
[V:2] d4A4B4 | 
[V:3] F8F4 | 
[V:4] D,8D,4 | 
[V:1] E4D4G4 | 
[V:2] c4d8 | 
[V:3] G6A2_B4 | 
[V:4] C,4B,,4G,,4 | 
[V:1] F4E6D2 | 
[V:2] d4c8 | 
[V:3] A8G4 | 
[V:4] D,4A,,4C,4 | 
[V:1] D6^CB,C4 | 
[V:2] B4A8 | 
[V:3] F4E8 | 
[V:4] D,4A,,8 | 
[V:1] D12 |]  
[V:2] A12 |]  
[V:3] D12 |]  
[V:4] D,12 |]  



